symbolic/24x24/apps/hubstaff-green.svg

<svg xmlns="http://www.w3.org/2000/svg" width="24" height="24" version="1.1">
 <path style="opacity:0.2" d="M 5.8102822,21.352053 C 3.0079464,19.821555 2.8896458,19.727159 3.0428131,19.143614 4.3884813,17.380542 5.9263523,16.159649 7.9816329,15.5 l 0.7967342,0.603412 c 1.0033614,0.759903 1.4252189,1.077375 2.6584359,1.087524 1.237752,0.01019 1.229484,-0.250726 2.383388,-1.049371 l 0.925618,-0.640643 c 1.640448,0.202371 2.857941,1.161097 3.944924,2.170004 1.922194,1.787833 1.917997,1.799369 -1.295934,3.564423 -0.894463,0.49123 -1.725418,0.925721 -2.243492,1.177324 C 14.579745,22.754457 14.511381,22.007218 14.186701,21.64754 13.708933,21.199574 12.82499,20.604627 11.5,20.604627 c -1.444506,0 -2.3158026,0.707119 -2.7257045,1.160002 -0.2933456,0.486872 -0.4707741,0.819015 -0.8716182,0.653496 -0.5104282,-0.232568 -1.283509,-0.624299 -2.0923951,-1.066072 z"/>
 <path style="fill:#24be65" d="M 5.8102822,20.852053 C 3.0079464,19.321555 2.8896458,19.227159 3.0428131,18.643614 4.3884813,16.880542 5.9263523,15.659649 7.9816329,15 l 0.7967342,0.603412 c 1.0033614,0.759903 1.4252189,1.077375 2.6584359,1.087524 1.237752,0.01019 1.229484,-0.250726 2.383388,-1.049371 l 0.925618,-0.640643 c 1.640448,0.202371 2.857941,1.161097 3.944924,2.170004 1.922194,1.787833 1.917997,1.799369 -1.295934,3.564423 -0.894463,0.49123 -1.725418,0.925721 -2.243492,1.177324 C 14.579745,22.254457 14.511381,21.507218 14.186701,21.14754 13.708933,20.699574 12.82499,20.104627 11.5,20.104627 c -1.444506,0 -2.3158026,0.707119 -2.7257045,1.160002 -0.2933456,0.486872 -0.4707741,0.819015 -0.8716182,0.653496 -0.5104282,-0.232568 -1.283509,-0.624299 -2.0923951,-1.066072 z"/>
 <path style="opacity:0.2" d="M 2.1258169,15.38049 C 2.0566219,15.309838 2.0000093,14.028558 2.0000093,12.533199 l 0,-2.7188348 0.8864583,-0.3887367 C 4.4002204,8.7618065 5.2646172,7.6892241 5.0451347,6.1013507 4.9920663,5.7174428 5.0036258,5.3151156 5.0708652,5.2072898 5.228109,4.9549992 9.333274,2.5000014 9.6233719,2.5000014 c 0.1206945,0 0.292221,0.093561 0.3811711,0.2079134 0.570611,0.7335555 1.153398,4.3691075 0.956349,5.4106474 C 10.872224,8.5872285 10.734833,8.712746 9.9763951,9.017985 8.9077478,9.4480684 8.0110067,10.324202 7.527484,11.410625 7.2376514,12.06184 7.1787776,11.599775 7.2256577,12.61628 l 0.058238,1.262837 -0.5607199,0.375341 C 5.5142157,15.063719 2.5311683,15.794361 2.1258392,15.38049 Z"/>
 <path style="fill:#24be65" d="M 2.1258169,14.88049 C 2.0566219,14.809838 2.0000093,13.528558 2.0000093,12.033199 l 0,-2.718836 0.8864583,-0.3887375 C 4.4002204,8.2618045 5.2646172,7.1892221 5.0451347,5.6013487 4.9920663,5.2174408 5.0036258,4.8151136 5.0708652,4.7072878 5.228109,4.4549972 9.333274,1.9999994 9.6233719,1.9999994 c 0.1206945,0 0.292221,0.093561 0.3811711,0.2079134 0.570611,0.7335555 1.153398,4.3691075 0.956349,5.4106474 C 10.872224,8.0872265 10.734833,8.212744 9.9763951,8.517983 8.9077478,8.9480664 8.0110067,9.8242019 7.527484,10.910625 7.2376514,11.56184 7.1787776,11.099775 7.2256577,12.11628 l 0.058238,1.262837 -0.5607199,0.375341 C 5.5142157,14.563719 2.5311683,15.294361 2.1258392,14.88049 Z"/>
 <path style="opacity:0.2" d="M 20.874192,15.380491 C 20.943387,15.30984 21,14.028558 21,12.533199 L 21,9.8143652 20.113542,9.4256277 c -1.513754,-0.663821 -2.33016,-1.7364033 -2.110678,-3.3242767 0.05307,-0.3839079 0.04151,-0.786235 -0.02573,-0.8940609 -0.157247,-0.2522906 -4.3104,-2.7072882 -4.600499,-2.7072882 -0.120695,0 -0.29222,0.093561 -0.381171,0.2079133 -0.57061,0.7335555 -1.153398,4.3691074 -0.956349,5.4106472 0.08867,0.4686664 0.226059,0.5941838 0.984497,0.8994228 1.068647,0.4300834 1.965388,1.3062168 2.44891,2.3926398 0.289833,0.651215 0.348706,0.18915 0.301827,1.205655 l -0.05823,1.262838 0.56072,0.37534 c 1.208961,0.809261 4.192008,1.539903 4.597336,1.126033 z"/>
 <path style="fill:#24be65" d="M 20.874192,14.880491 C 20.943387,14.80984 21,13.528558 21,12.033199 L 21,9.3143632 20.113542,8.9256257 c -1.513754,-0.663821 -2.33016,-1.7364033 -2.110678,-3.3242767 0.05307,-0.3839079 0.04151,-0.786235 -0.02573,-0.8940609 -0.157247,-0.2522906 -4.3104,-2.7072882 -4.600499,-2.7072882 -0.120695,0 -0.29222,0.093561 -0.381171,0.2079133 -0.57061,0.7335555 -1.153398,4.3691074 -0.956349,5.4106472 0.08867,0.4686664 0.226059,0.5941838 0.984497,0.8994228 1.068647,0.4300834 1.965388,1.3062187 2.44891,2.3926418 0.289833,0.651215 0.348706,0.18915 0.301827,1.205655 l -0.05823,1.262838 0.56072,0.37534 c 1.208961,0.809261 4.192008,1.539903 4.597336,1.126033 z"/>
 <circle style="opacity:0.2" cx="11.5" cy="13" r="4.5"/>
 <circle style="fill:#ffffff" cx="11.5" cy="12.5" r="4.5"/>
 <path style="fill:#ffffff;opacity:0.2" d="M 9.6230469 2 C 9.332949 2 5.2275563 4.4547407 5.0703125 4.7070312 C 5.0140397 4.7972708 5.0081871 5.1025199 5.0351562 5.421875 C 5.0450208 5.3402311 5.049304 5.2407207 5.0703125 5.2070312 C 5.2275563 4.9547407 9.332949 2.5 9.6230469 2.5 C 9.7437414 2.5 9.9149562 2.5926788 10.003906 2.7070312 C 10.467736 3.3033131 10.933751 5.7999371 10.988281 7.2792969 C 11.052998 5.9599869 10.526216 2.878493 10.003906 2.2070312 C 9.9149562 2.0926789 9.7437414 2 9.6230469 2 z M 5.0585938 6.3339844 C 4.9558354 7.5242569 4.1533654 8.3703229 2.8867188 8.9257812 L 2 9.3144531 L 2 9.8144531 L 2.8867188 9.4257812 C 4.3236179 8.7956626 5.1635262 7.7918352 5.0585938 6.3339844 z M 7.2246094 12.025391 C 7.2131045 12.132314 7.2112897 12.286026 7.2265625 12.617188 L 7.2617188 13.392578 L 7.2832031 13.378906 L 7.2265625 12.117188 C 7.2245226 12.072956 7.2262385 12.064237 7.2246094 12.025391 z"/>
 <path style="fill:#ffffff;opacity:0.2" d="M 13.376953 2 C 13.256258 2 13.085045 2.0926789 12.996094 2.2070312 C 12.473785 2.878493 11.947002 5.959987 12.011719 7.2792969 C 12.066249 5.7999372 12.532265 3.3033131 12.996094 2.7070312 C 13.085045 2.5926789 13.256258 2.5 13.376953 2.5 C 13.667052 2.5 17.819315 4.9547406 17.976562 5.2070312 C 17.997397 5.2404419 18.003795 5.3392697 18.013672 5.4199219 C 18.040389 5.1013688 18.032712 4.7970728 17.976562 4.7070312 C 17.819315 4.4547406 13.667052 2 13.376953 2 z M 17.988281 6.34375 C 17.883304 7.7962829 18.679599 8.7970739 20.113281 9.4257812 L 21 9.8144531 L 21 9.3144531 L 20.113281 8.9257812 C 18.850193 8.3718836 18.083658 7.5287252 17.988281 6.34375 z M 15.775391 12.025391 C 15.773762 12.064237 15.775477 12.072956 15.773438 12.117188 L 15.716797 13.378906 L 15.738281 13.392578 L 15.773438 12.617188 C 15.78871 12.286026 15.786896 12.132314 15.775391 12.025391 z"/>
</svg>

<svg xmlns="http://www.w3.org/2000/svg" width="24" height="24"><path style="opacity:.2" d="M5.81 21.352c-2.802-1.53-2.92-1.625-2.767-2.208C4.388 17.38 5.926 16.16 7.982 15.5l.796.603c1.004.76 1.426 1.078 2.659 1.088 1.238.01 1.23-.25 2.383-1.05l.926-.64c1.64.202 2.858 1.161 3.945 2.17 1.922 1.788 1.918 1.8-1.296 3.564-.895.492-1.726.926-2.244 1.178-.571.341-.64-.406-.964-.765a3.864 3.864 0 0 0-2.687-1.043c-1.445 0-2.316.707-2.726 1.16-.293.487-.47.819-.871.653a35.635 35.635 0 0 1-2.093-1.066z"/><path style="fill:#24be65" d="M5.81 20.852c-2.802-1.53-2.92-1.625-2.767-2.208C4.388 16.88 5.926 15.66 7.982 15l.796.603c1.004.76 1.426 1.078 2.659 1.088 1.238.01 1.23-.25 2.383-1.05l.926-.64c1.64.202 2.858 1.161 3.945 2.17 1.922 1.788 1.918 1.8-1.296 3.564-.895.492-1.726.926-2.244 1.178-.571.341-.64-.406-.964-.765a3.864 3.864 0 0 0-2.687-1.043c-1.445 0-2.316.707-2.726 1.16-.293.487-.47.819-.871.653a35.635 35.635 0 0 1-2.093-1.066z"/><path style="opacity:.2" d="M2.126 15.38C2.056 15.31 2 14.03 2 12.533V9.814l.886-.388C4.4 8.762 5.265 7.689 5.046 6.1c-.054-.384-.042-.786.025-.894C5.228 4.955 9.333 2.5 9.623 2.5c.121 0 .293.094.382.208.57.733 1.153 4.369.956 5.41-.089.47-.226.595-.985.9-1.068.43-1.965 1.306-2.449 2.393-.29.65-.348.189-.301 1.205l.058 1.263-.56.375c-1.21.81-4.193 1.54-4.598 1.126z"/><path style="fill:#24be65" d="M2.126 14.88C2.056 14.81 2 13.53 2 12.033V9.314l.886-.388C4.4 8.262 5.265 7.189 5.046 5.6c-.054-.384-.042-.786.025-.894C5.228 4.455 9.333 2 9.623 2c.121 0 .293.094.382.208.57.733 1.153 4.369.956 5.41-.089.47-.226.595-.985.9-1.068.43-1.965 1.306-2.449 2.393-.29.65-.348.189-.301 1.205l.058 1.263-.56.375c-1.21.81-4.193 1.54-4.598 1.126z"/><path style="opacity:.2" d="M20.874 15.38c.07-.07.126-1.351.126-2.847V9.814l-.886-.388c-1.514-.664-2.33-1.737-2.111-3.325.053-.384.041-.786-.026-.894-.157-.252-4.31-2.707-4.6-2.707-.121 0-.293.094-.382.208-.57.733-1.153 4.369-.956 5.41.089.47.226.595.985.9 1.068.43 1.965 1.306 2.449 2.393.29.65.348.189.301 1.205l-.058 1.263.56.375c1.21.81 4.193 1.54 4.598 1.126z"/><path style="fill:#24be65" d="M20.874 14.88c.07-.07.126-1.351.126-2.847V9.314l-.886-.388c-1.514-.664-2.33-1.737-2.111-3.325.053-.384.041-.786-.026-.894C17.82 4.455 13.667 2 13.377 2c-.121 0-.293.094-.382.208-.57.733-1.153 4.369-.956 5.41.089.47.226.595.985.9 1.068.43 1.965 1.306 2.449 2.393.29.65.348.189.301 1.205l-.058 1.263.56.375c1.21.81 4.193 1.54 4.598 1.126z"/><circle style="opacity:.2" cx="11.5" cy="13" r="4.5"/><circle style="fill:#fff" cx="11.5" cy="12.5" r="4.5"/><path style="fill:#fff;opacity:.2" d="M9.623 2c-.29 0-4.395 2.455-4.553 2.707-.056.09-.062.396-.035.715.01-.082.014-.181.035-.215C5.228 4.955 9.333 2.5 9.623 2.5c.12 0 .292.093.38.207.465.596.93 3.093.985 4.572.065-1.319-.462-4.4-.984-5.072C9.915 2.093 9.744 2 9.623 2zM5.059 6.334c-.103 1.19-.906 2.036-2.172 2.592L2 9.314v.5l.887-.388c1.437-.63 2.277-1.634 2.172-3.092zm2.166 5.691c-.012.107-.014.261.002.592l.035.776.021-.014-.056-1.262c-.002-.044 0-.053-.002-.092zM13.377 2c-.12 0-.292.093-.38.207-.523.671-1.05 3.753-.985 5.072.054-1.48.52-3.976.984-4.572.089-.114.26-.207.381-.207.29 0 4.442 2.455 4.6 2.707.02.033.027.132.037.213.026-.319.019-.623-.037-.713-.158-.252-4.31-2.707-4.6-2.707zm4.611 4.344c-.105 1.452.692 2.453 2.125 3.082l.887.388v-.5l-.887-.388c-1.263-.554-2.03-1.397-2.125-2.582zm-2.213 5.681c-.001.04 0 .048-.002.092l-.056 1.262.021.014.035-.776c.016-.331.014-.485.002-.592z"/></svg>
